X:15
T:Harriot THO4.015, The
M:2/4
L:1/8
Z:vmp. Peter Dunk 2010/11.from a transcription by Fynn Titford-Mock 2007
B:Thompson's Compleat Collection of 200 Favourite Country Dances Volume IV.
Q:1/4=140
K:D
d2 fd|afed|efge|dcBA|d2 fd|afed|cedB|A2A,2:|
|:afd=c|Bde^f|geBe|dcBA|B g2 B|A a2 g|fedc|d2D2:|
